X: 19652
T: Jeannie Shook Da Bairn
R: reel
M: 4/4
K: Adorian
|:{c}u(BA)Bd ed B2|g2 ge (dc)BG|A<ABd efed|(^cA)B^G A2 A2:|
|:{f}u(e^c)ce v(ed)df|u(e^c)cA B2 B2|">"c2 ">"c2 efed|(^cA)B^G A2 A2:|

